X: 16238
T: Greesha The Black Cat
R: reel
M: 4/4
K: Edorian
|:ed|"Em"BBBA GEDE|GABG "A"A2 BD|"Em"EEE D EDBA|GE (3GAB "D"A2ed|"Em"BBBA GEDE|GABG "A"A2 Be|"D"dBAF "Bm"D2 z2|"D"EGBd "Em"e2:|
|:"Em"gebg ageB|dega e2dA|"Bm"BBBA Bded|gegb"D"a2de|"Em"gebg agde|"G"(3gbg (3age d2 Be|"D"dBAF "Bm"D2 z2|"D"EGBd "Em"e4:|

